icons/mobile/24/svg/arrow-clockwise-24.svg

<svg width="24" height="24" viewBox="0 0 24 24" fill="none" xmlns="http://www.w3.org/2000/svg">
<path d="M11.3659 4.02384C13.8996 3.82792 16.2106 4.82032 17.8024 6.50138L19.4333 4.87248C19.8272 4.4785 20.4996 4.75696 20.4997 5.31388V9.68791C20.4997 10.0329 20.2197 10.3129 19.8747 10.3129H15.5006C14.9439 10.3126 14.6653 9.63944 15.0592 9.24552L16.5631 7.74064C15.4234 6.51743 13.8024 5.74943 12.0016 5.74943C8.30278 5.74963 5.34353 8.97913 5.79752 12.767C6.12152 15.471 8.25603 17.7166 10.943 18.1606C14.161 18.6926 17.0269 16.7461 17.944 13.9281C18.061 13.5692 18.3718 13.3111 18.7487 13.311H18.8219C19.3819 13.311 19.7927 13.858 19.6247 14.393C18.6056 17.6369 15.5766 19.9994 12.0006 19.9994C7.51182 19.9992 3.87462 16.2829 4.00357 11.766C4.11857 7.74606 7.35691 4.33488 11.3659 4.02384Z" fill="black"/>
</svg>

<!-- This Source Code Form is subject to the terms of the Mozilla Public
   - License, v. 2.0. If a copy of the MPL was not distributed with this
   - file, You can obtain one at http://mozilla.org/MPL/2.0/. -->
<svg xmlns="http://www.w3.org/2000/svg" width="24" height="24" fill="none" viewBox="0 0 24 24">
    <path fill="#000" d="M11.366 4.024A7.98 7.98 0 0 1 17.802 6.5l1.631-1.629a.624.624 0 0 1 1.067.442v4.374c0 .345-.28.625-.625.625H15.5a.625.625 0 0 1-.442-1.067l1.504-1.505a6.22 6.22 0 0 0-4.561-1.992 6.257 6.257 0 0 0-6.204 7.018c.324 2.704 2.458 4.95 5.145 5.394a6.26 6.26 0 0 0 7.001-4.233c.117-.359.428-.617.805-.617h.073c.56 0 .97.547.803 1.082-1.02 3.244-4.048 5.606-7.624 5.606-4.49 0-8.126-3.716-7.997-8.233.115-4.02 3.353-7.431 7.362-7.742" />
</svg>
